img/beta-logo-small.svg

<svg width="128" height="128" viewBox="0 0 128 128" fill="none" xmlns="http://www.w3.org/2000/svg">
<rect width="128" height="128" rx="16" fill="white"/>
<path d="M4 14.5466C4 8.7219 8.72189 4 14.5466 4H113.453C119.278 4 124 8.72188 124 14.5466V113.453C124 119.278 119.278 124 113.453 124H14.5466C8.72188 124 4 119.278 4 113.453V14.5466Z" stroke="#5A19DA" stroke-width="8" stroke-linecap="square"/>
<path fill-rule="evenodd" clip-rule="evenodd" d="M50.9927 20.0327C47.5442 20.0327 44.7488 22.8281 44.7488 26.2765V52.3326C44.7488 55.781 47.5442 58.5765 50.9927 58.5765H77.0487C80.4972 58.5765 83.2926 55.781 83.2926 52.3326V26.2765C83.2926 22.8281 80.4972 20.0327 77.0487 20.0327H50.9927ZM65.0209 30.2044C64.9806 27.8609 66.8535 25.9284 69.2043 25.888C71.555 25.8477 73.4937 27.7148 73.534 30.0583C73.5744 32.4018 71.7017 34.3341 69.3507 34.3744C68.4644 34.3897 67.6366 34.1337 66.9468 33.6832L60.1458 37.8463C60.2632 38.2228 60.3297 38.6224 60.337 39.0367C60.3467 39.6063 60.2435 40.1514 60.0478 40.6512L66.7985 44.7833C67.4771 44.2978 68.3058 44.0062 69.2043 43.9906C71.555 43.9502 73.4937 45.8174 73.534 48.1609C73.5744 50.5044 71.7017 52.4369 69.3507 52.4772C66.9999 52.5176 65.0615 50.6505 65.0209 48.307C65.0176 48.1049 65.0282 47.906 65.0524 47.7112L57.5243 43.1032C57.0958 43.2571 56.6347 43.3447 56.1536 43.3528C53.8028 43.3932 51.8645 41.526 51.8238 39.1828C51.7835 36.8393 53.6565 34.9068 56.0072 34.8664C56.6667 34.855 57.2939 34.9938 57.8557 35.2512L65.078 30.8305C65.044 30.6265 65.0248 30.4173 65.0209 30.2044Z" fill="#5A19DA"/>
<path fill-rule="evenodd" clip-rule="evenodd" d="M26.5374 68.9829C23.0889 68.9829 20.2935 71.7786 20.2935 75.2268V101.283C20.2935 104.731 23.0889 107.527 26.5374 107.527H52.5935C56.0417 107.527 58.8374 104.731 58.8374 101.283V75.2268C58.8374 71.7786 56.0417 68.9829 52.5935 68.9829H26.5374ZM42.0352 85.7935H49.293C49.8309 85.7935 50.3276 85.9682 50.7322 86.2632C51.3558 86.705 51.7629 87.4324 51.7629 88.255C51.7629 88.9139 51.5013 89.5121 51.0767 89.951C50.6262 90.4215 49.992 90.7162 49.293 90.7162H42.0352V97.991C42.0352 99.1697 41.1862 100.167 40.0665 100.401C39.9048 100.434 39.7373 100.452 39.5659 100.452C38.1896 100.452 37.0958 99.3584 37.0958 97.991V90.7162H29.8376C28.4613 90.7162 27.368 89.6223 27.368 88.255C27.368 87.596 27.6293 86.998 28.054 86.5589C28.5045 86.0884 29.1386 85.7935 29.8376 85.7935H37.0958V78.5189C37.0958 77.3402 37.9447 76.3423 39.0642 76.1089C39.2261 76.0752 39.3934 76.0574 39.5648 76.0574C40.9411 76.0574 42.0352 77.1515 42.0352 78.5189V85.7935Z" fill="#5A19DA"/>
<path d="M83.643 80.1848H88.0848V83.7235C88.0848 84.8602 88.9797 85.7826 90.0903 85.7826H93.3888V96.5691H83.643V80.1848Z" fill="#5A19DA"/>
<path fill-rule="evenodd" clip-rule="evenodd" d="M69.2438 75.2268C69.2438 71.7786 72.0392 68.9829 75.4877 68.9829H101.544C104.992 68.9829 107.788 71.7786 107.788 75.2268V101.283C107.788 104.731 104.992 107.527 101.544 107.527H75.4877C72.0392 107.527 69.2438 104.731 69.2438 101.283V75.2268ZM90.6206 76.0143L97.5986 83.18C97.8637 83.4764 98.0296 83.8551 98.0296 84.2836V98.1558L98.0296 98.175L98.0296 98.1844C97.9967 99.8512 96.6828 101.184 95.0628 101.184H81.9686C80.3489 101.184 79.0352 99.8356 79.0018 98.1844V78.5695C79.0347 76.9027 80.3486 75.5696 81.9686 75.5696H89.5766C89.9578 75.5696 90.339 75.7343 90.6206 76.0143Z" fill="#5A19DA"/>
</svg>

<svg xmlns="http://www.w3.org/2000/svg" width="128" height="128" fill="none"><rect width="128" height="128" fill="#fff" rx="16"/><path stroke="#5A19DA" stroke-linecap="square" stroke-width="8" d="M4 14.547C4 8.722 8.722 4 14.547 4h98.906C119.278 4 124 8.722 124 14.547v98.906c0 5.825-4.722 10.547-10.547 10.547H14.547C8.722 124 4 119.278 4 113.453V14.547Z"/><path fill="#5A19DA" fill-rule="evenodd" d="M50.993 20.033a6.244 6.244 0 0 0-6.244 6.243v26.057a6.244 6.244 0 0 0 6.244 6.244h26.056a6.244 6.244 0 0 0 6.244-6.244V26.277a6.244 6.244 0 0 0-6.244-6.244H50.993ZM65.02 30.204a4.25 4.25 0 0 1 4.183-4.316 4.251 4.251 0 0 1 4.33 4.17 4.25 4.25 0 0 1-4.183 4.316 4.248 4.248 0 0 1-2.404-.69l-6.801 4.162a4.245 4.245 0 0 1-.098 2.805l6.75 4.132a4.247 4.247 0 0 1 2.406-.792 4.251 4.251 0 0 1 4.33 4.17 4.25 4.25 0 0 1-4.183 4.316 4.251 4.251 0 0 1-4.299-4.766l-7.528-4.608a4.26 4.26 0 0 1-1.37.25 4.251 4.251 0 0 1-4.33-4.17 4.25 4.25 0 0 1 4.183-4.317 4.25 4.25 0 0 1 1.849.385l7.222-4.42a4.286 4.286 0 0 1-.057-.627ZM26.537 68.983a6.244 6.244 0 0 0-6.243 6.244v26.056a6.244 6.244 0 0 0 6.243 6.244h26.056a6.244 6.244 0 0 0 6.244-6.244V75.227a6.244 6.244 0 0 0-6.244-6.244H26.537Zm15.498 16.81h7.258c.538 0 1.035.175 1.44.47a2.436 2.436 0 0 1 .344 3.688c-.45.47-1.085.765-1.784.765h-7.258v7.275a2.478 2.478 0 0 1-2.47 2.461 2.453 2.453 0 0 1-2.47-2.461v-7.275h-7.257a2.452 2.452 0 0 1-2.47-2.461c0-.659.261-1.257.686-1.696a2.466 2.466 0 0 1 1.784-.766h7.258V78.52a2.478 2.478 0 0 1 2.469-2.462 2.453 2.453 0 0 1 2.47 2.462v7.274Z" clip-rule="evenodd"/><path fill="#5A19DA" d="M83.643 80.185h4.442v3.538c0 1.137.895 2.06 2.005 2.06h3.299v10.786h-9.746V80.185Z"/><path fill="#5A19DA" fill-rule="evenodd" d="M69.244 75.227a6.244 6.244 0 0 1 6.244-6.244h26.056a6.244 6.244 0 0 1 6.244 6.244v26.056a6.245 6.245 0 0 1-6.244 6.244H75.488a6.244 6.244 0 0 1-6.244-6.244V75.227Zm21.377.787 6.978 7.166c.265.296.43.675.43 1.104v13.901c-.032 1.666-1.346 2.999-2.966 2.999H81.969c-1.62 0-2.934-1.348-2.967-3V78.57c.033-1.667 1.347-3 2.967-3h7.608c.38 0 .762.164 1.044.444Z" clip-rule="evenodd"/></svg>
